X: 5015
T: Brexit, The
R: reel
M: 4/4
K: Dmajor
AB|:cF (3FFF dFcF|ABcA BcAB|cF (3FFF dFcF|ABcA B2 AB|
cF (3FFF dFcF|ABcA Bcef|af ~f2 fecA|1 ABcA B2 AB:|2 ABcA B2 ef||
|:af ~f2 fecA|ABcA Bcef|af ~f2 fecA|ABcA B2 ef|
af ~f2 fecA|ABcA Bcef|bfaf ec ~c2|1 ABcA B2 ef:|2 ABcA B2 AB||

